!!!!SEGMENT: pl-kk--kk-i-152--001_anonim--ecce-sacredos-magnus.krn
!!!cenid: 17xx:2450
!!!COM: Anonim
!!!COM-rismID: pe30004985
!!!CDT:
!!!CNT:
!!!OTL: Ecce sacredos magnus
!!!PDT:
!!!AGN: Sacred
!!!YEC: Copyright 2022 Narodowy Instytut Fryderyka Chopina (https://polishscores.org)
!!!YEM: License CC-BY-4.0 (https://creativecommons.org/licenses/by/4.0)
!!!SMS-siglum: PL-Kk
!!!SMS-shelfmark: Kk.I.152
!!!SMS-variant:
!!!SMS-altvar:
!!!SMS-shelfwork: 001 W
!!!NIFC-rismSourceID: 1001151144
!!!NIFC-rismChildID: 1001151145
!!!NIFC-islandoraID: pl-kk:3688
!!!URL-pdf-islandora: https://repozytorium.nifc.pl/islandora/object/pl-kk%3A3688/datastream/PDF/view
!!!URL-scan: https://polish.musicsources.pl/pl/lokalizacje/galeria/rekopisy/5780/1 @EN{Scan on Polish Music Sources Website} @PL{Skany w portalu Dziedzictwo Muzyki Polskiej w otwartym dostępie}
!!!IIIF:
!!!ONB-nifc: UWAGA: S – skan 1, A – skan 3, T – skan 5, B – skan 7
!!!OMD:
!!!AIN: 1 alto 1 bass 1 canto 1 tenor
!!!key: d
**kern	**text	**kern	**text	**kern	**text	**kern	**text
*part4	*part4	*part3	*part3	*part2	*part2	*part1	*part1
*staff4	*staff4	*staff3	*staff3	*staff2	*staff2	*staff1	*staff1
*I"Basso	*	*I"Tenore	*	*I"Alto	*	*I"Canto	*
*I'B	*	*I'T	*	*I'A	*	*I'S	*
*Ibass	*	*Itenor	*	*Ialto	*	*Icanto	*
*ICvox	*	*ICvox	*	*ICvox	*	*ICvox	*
*clefF4	*	*clefC4	*	*clefC3	*	*clefC1	*
*k[]	*	*k[]	*	*k[]	*	*k[]	*
*d:	*	*d:	*	*d:	*	*d:	*
*M2/2	*	*M2/2	*	*M2/2	*	*M2/2	*
*met(c|)	*	*met(c|)	*	*met(c|)	*	*met(c|)	*
=1	=1	=1	=1	=1	=1	=1	=1
00r	.	00r	.	2r	.	0r	.
*	*	*	*	*2\right	*	*	*
.	.	.	.	2d\	Ec-	.	.
=2	=2	=2	=2	=2	=2	=2	=2
.	.	.	.	2a\	-ce	.	.
.	.	.	.	2a\	Sa-	.	.
=3	=3	=3	=3	=3	=3	=3	=3
.	.	.	.	2f\	-cer-	2r	.
*	*	*	*	*	*	*2\right	*
.	.	.	.	2c#X/	-dos	2a\	Ec-
=4	=4	=4	=4	=4	=4	=4	=4
.	.	.	.	4d\	ma-	2dd\	-ce
.	.	.	.	4e\	.	.	.
.	.	.	.	4f\	.	2dd\	Sa-
.	.	.	.	4g\	.	.	.
=5	=5	=5	=5	=5	=5	=5	=5
0r	.	00r	.	2a\	.	2cc\	-cer-
.	.	.	.	4e\	.	2g#X/	-dos
.	.	.	.	4d\	.	.	.
!	!	!	!	!LO:LB:g=original	!	!	!
=6	=6	=6	=6	=6	=6	=6	=6
.	.	.	.	4c/	.	4a\	ma-
.	.	.	.	4B/	.	4b\	.
.	.	.	.	4A/	.	4cc\	.
.	.	.	.	4B/	.	4dd\	.
=7	=7	=7	=7	=7	=7	=7	=7
1r	.	.	.	4c\	.	(1ee	.
.	.	.	.	4d\	.	.	.
.	.	.	.	4e\	.	.	.
.	.	.	.	4c\	.	.	.
=8	=8	=8	=8	=8	=8	=8	=8
2r	.	.	.	1f	.	1a)	.
2D/	Ec-	.	.	.	.	.	.
=9	=9	=9	=9	=9	=9	=9	=9
*2\right	*	*	*	*	*	*	*
2A\	-ce	1r	.	1e	.	2dd\	.
2A\	Sa-	.	.	.	.	2cc#X\	.
!	!	!	!	!	!	!LO:LB:g=original	!
=10	=10	=10	=10	=10	=10	=10	=10
2F\	-cer-	2r	.	2d\	-gnus	2dd\	-gnus
2C#X/	-dos	2A/	Ec-	2r	.	2r	.
=11	=11	=11	=11	=11	=11	=11	=11
*	*	*2\right	*	*	*	*	*
4D\	ma-	2B\	-ce	1f	Sa-	1r	.
4E\	.	.	.	.	.	.	.
4F\yy	.	2B\	Sa-	.	.	.	.
4G\yy	.	.	.	.	.	.	.
=12	=12	=12	=12	=12	=12	=12	=12
!LO:TX:t=P:problem:takt niewidoczny	!	!	!	!	!	!	!
1ryy	.	2A\	-cer-	2.e\	-cer-	2r	.
.	.	2G#X/	-dos	.	.	2ee\	Sa-
.	-gnuſ	.	.	4d\	-dos	.	.
!LO:LB:g=original	!	!	!	!	!	!	!
=13	=13	=13	=13	=13	=13	=13	=13
2.AA/	ma-	4A/	ma-	4c/	ma-	2ee\	-cer-
.	.	4B\	.	4d/	.	.	.
.	.	4c\	.	4c/	.	2cc\	-dos
4BB/	.	4d\	.	4B/	.	.	.
=14	=14	=14	=14	=14	=14	=14	=14
4C/	.	[<1e	.	2A/	.	[<1cc	Sa-
4D/	.	.	.	.	.	.	.
4E/	.	.	.	[<2a\	.	.	.
4C/	.	.	.	.	.	.	.
=15	=15	=15	=15	=15	=15	=15	=15
1F	.	2e\]	.	2a\]	.	2cc\]	.
.	.	[<2d\	.	4g\	.	2dd\	-cer-
.	.	.	.	4f\	.	.	.
!	!	!	!	!LO:LB:g=original	!	!	!
=16	=16	=16	=16	=16	=16	=16	=16
1E	.	2d\]	.	4g\	.	2b\	-dos
.	.	.	.	4f\	.	.	.
.	.	[<2c\	.	4g\	.	2ee\	ma-
.	.	.	.	4e\	.	.	.
!	!	!LO:LB:g=original	!	!	!	!	!
=17	=17	=17	=17	=17	=17	=17	=17
1D	.	2c\]	.	1f	.	[<1a	.
.	.	2d\	.	.	.	.	.
=18	=18	=18	=18	=18	=18	=18	=18
1E	.	1B	.	1eZ	-gnus	2a\]	.
.	.	.	.	.	.	2g#X/	.
=19	=19	=19	=19	=19	=19	=19	=19
1AA	-gnus	2cZ\	-gnus	2a\	qui	1a	-gnus
.	.	2e\	Qui	4e\	in	.	.
.	.	.	.	4e\	di-	.	.
=20	=20	=20	=20	=20	=20	=20	=20
2r	.	4B\	in	4e\	-e-	1r	.
.	.	4B\	di-	4f\	-bus	.	.
2E\	Qui	4B\	-e-	[<2g\	su-	.	.
.	.	4c\	-buſ	.	.	.	.
=21	=21	=21	=21	=21	=21	=21	=21
4D\	in	2d\	su-	4g\]	.	2r	.
4D\	di-	.	.	4gZ\	-is	.	.
4D\	-e-	2d\	-is	(4f\	pla-	2dd\	Qui
4E\	-buſ	.	.	4g\)	.	.	.
!	!	!	!	!	!	!LO:LB:g=original	!
=22	=22	=22	=22	=22	=22	=22	=22
4F\	su-	4c\	pla-	2a\	.	4a\	in
4F\	-is	4d\	.	.	.	4a\	di-
[2C/	pla-	2e\	.	4e\	.	4a\	-e-
.	.	.	.	4f\	.	4b\	-buſ
=23	=23	=23	=23	=23	=23	=23	=23
!LO:N:xstem	!	!	!	!	!	!	!
4C/]	.	4E/	.	4.g\	.	4cc\	su-
4D/	.	4F/	.	.	.	4cc\	-is
.	.	.	.	8g\	-cu-	.	.
4E\	.	4G/	.	2g\	-it	[2g/	pla-
4F\	.	4A/	.	.	.	.	.
!LO:LB:g=original	!	!	!	!LO:LB:g=original	!	!	!
=24	=24	=24	=24	=24	=24	=24	=24
!	!	!	!	!	!	!LO:N:xstem	!
4.G\	.	4B-X\	.	2.d\	pla-	4g/]	.
.	.	4c\	.	.	.	4a\	.
8G\	-cu-	.	.	.	.	.	.
2G\	-it	2d\	.	.	.	4b-X\	.
.	.	.	.	4e\	.	4cc\	.
=25	=25	=25	=25	=25	=25	=25	=25
2.D/	pla-	2.A/	.	4f\	.	4dd\	.
.	.	.	.	4g\	.	4ee\	.
.	.	.	.	4a\	.	[<2ff\	.
4E\	.	4G/	.	4a\	-cu-	.	.
!	!	!LO:LB:g=original	!	!	!	!	!
=26	=26	=26	=26	=26	=26	=26	=26
4F\	.	4A\	.	2d\	-it	4ff\]	.
4G\	-cu-	4B-X\	.	.	.	4ff\	-cu-
2A\	-it	[<2c\	.	[<2a\	De-	2ee\	-it
=27	=27	=27	=27	=27	=27	=27	=27
!	!	!LO:N:xstem	!	!	!	!	!
2.AA/	De-	4c\]	.	2a\]	.	4ff\	De-
.	.	4c\	-cu-	.	.	4cc\	.
.	.	2c\	-it	4b-X\	.	[<2ff\	.
4BB-X/	.	.	.	4a\	.	.	.
=28	=28	=28	=28	=28	=28	=28	=28
1C	.	1c	De-	1g	.	2ff\]	.
.	.	.	.	.	.	2ee\	.
=29	=29	=29	=29	=29	=29	=29	=29
2FZ\	-o	1c	-o	1f	-o	2ffZ\	-o
4F\	pla-	.	.	.	.	(4a\	pla-
4G\	.	.	.	.	.	4b\)	.
!	!	!	!	!	!	!LO:LB:g=original	!
=30	=30	=30	=30	=30	=30	=30	=30
4.A\	.	2.c\	pla-	2.e\	pla-	4.cc\	.
8A\	-cu-	.	.	.	.	8cc\	-cu-
2A\	-it	.	.	.	.	2cc\	-it
.	.	4d\	.	4f\	.	.	.
=31	=31	=31	=31	=31	=31	=31	=31
(4E\	pla-	4.e\	.	4.g\	.	2.g/	pla-
4D\	.	.	.	.	.	.	.
.	.	8e\	-cu-	8g\	cu-	.	.
4E\	.	2e\	-it	2g\	-it	.	.
4F\)	.	.	.	.	.	4a\	.
!LO:LB:g=original	!	!	!	!	!	!	!
=32	=32	=32	=32	=32	=32	=32	=32
4.G\	.	4Bn\	pla-	4d\	De-	4.bn\	.
.	.	4A\	.	4c\	.	.	.
8G\	-cu-	.	.	.	.	8b\	-cu-
2G\	-it	4B\	.	4d\	.	2b\	-it
.	.	4c\	.	4e\	.	.	.
!	!	!	!	!LO:LB:g=original	!	!	!
=33	=33	=33	=33	=33	=33	=33	=33
2D/	De-	2d\	.	2f\	-o	2a\	De-
2E\	.	4c\	-cu-	2r	.	[<2ee\	.
.	.	4B\	-it	.	.	.	.
=34	=34	=34	=34	=34	=34	=34	=34
1F	.	1A	De-	2r	.	2ee\]	.
.	.	.	.	2A/	Ec-	2dd\	.
=35	=35	=35	=35	=35	=35	=35	=35
2EZ\	o	2Bn\	-o	2e\	-ce	[<1ee	-o
2AA/	Ec-	2r	.	2e\	Sa-	.	.
!	!	!LO:LB:g=original	!	!	!	!	!
=36	=36	=36	=36	=36	=36	=36	=36
2E\	-ce	00r	.	2c/	-cer-	1ee_<	.
2E\	Sa-	.	.	2G#X/	-dos	.	.
=37	=37	=37	=37	=37	=37	=37	=37
2C/	-cer-	.	.	2A/	ma-	1ee_<	.
2GG#X/	-dos	.	.	2B/	.	.	.
=38	=38	=38	=38	=38	=38	=38	=38
2.AA/	ma-	.	.	4c\	.	1ee]	.
.	.	.	.	4d\	.	.	.
.	.	.	.	[2e\	.	.	.
4BB/	.	.	.	.	.	.	.
=39	=39	=39	=39	=39	=39	=39	=39
!	!	!	!	!LO:N:xstem	!	!	!
4C/	.	.	.	4e\]	.	2r	.
4D/	.	.	.	4f\	.	.	.
4E/	.	.	.	[<2g\	.	2e/	Ec-
4C/	.	.	.	.	.	.	.
=40	=40	=40	=40	=40	=40	=40	=40
2DZ/	-gnus	2r	.	2g\]	.	2a\	-ce
(4D\	qui	2D/	ec-	[2f\	.	2a\	Sa-
4E\)	.	.	.	.	.	.	.
!LO:LB:g=original	!	!	!	!	!	!LO:LB:g=original	!
=41	=41	=41	=41	=41	=41	=41	=41
4F\	in	2A/	-ce	2f\]	.	2f/	-cer-
4G\	di-	.	.	.	.	.	.
[<2A\	-e-	2A/	Sa-	2e\	.	2c#X/	-dos
=42	=42	=42	=42	=42	=42	=42	=42
!LO:N:xstem	!	!	!	!	!	!	!
4A\]	.	2F/	-cer-	2fZ\	-gnuſ	2.d/	ma-
4B-X\	-bus	.	.	.	.	.	.
4A\	su-	2C#X/	-dos	(4f\	qui	.	.
4G\	-is	.	.	4g\)	.	4e/	.
!	!	!	!	!LO:LB:g=original	!	!	!
=43	=43	=43	=43	=43	=43	=43	=43
4F\	pla-	2.D/	ma-	4a\	in	4f/	.
4E\	.	.	.	4a\	di-	4g/	.
[2D/	.	.	.	4a\	-e-	4a/	.
.	.	4E/	.	4a\	-buſ	4g/	.
=44	=44	=44	=44	=44	=44	=44	=44
!LO:N:xstem	!	!	!	!	!	!	!
4D/]	.	2F/	.	2a\	su-	4f/	.
4C/	.	.	.	.	.	4e/	.
4BB-X/	.	2F/	-gn(us)	2a\	-is	4d/	.
4AA/	.	.	.	.	.	4c#X/	.
=45	=45	=45	=45	=45	=45	=45	=45
4BB-X/	.	2B-X\	qui(.)	2a\	pla-	4dZ/	-gn(us)
4BB-/	-cu-	.	.	.	.	4d/	qui
2BB-/	-it	4B-\	in	4g\	-cu-	4dd\	in
.	.	4c\	di-	4f\	-it	4dd\	di-
=46	=46	=46	=46	=46	=46	=46	=46
1BB-X	De-	4d\	-e-	2.g\	De-	4dd\	-e-
.	.	4d\	-buſ	.	.	4dd\	-buſ
.	.	2d\	su-	.	.	(4cc#X\	su-
.	.	.	.	4a\	.	4b\)	.
=47	=47	=47	=47	=47	=47	=47	=47
2AAZ/	-o	2AZ/	-is	1a	-o	1cc#X	-iſ
[<2A\	pla-	[<2e\	pla-	.	.	.	.
=48	=48	=48	=48	=48	=48	=48	=48
4A\]	.	4e\]	.	2.a\	pla-	2.a\	pla-
4B-X\	.	4d\	.	.	.	.	.
4A\	.	4c#X\	.	.	.	.	.
4G\	.	4e\	.	4a\	-cu-	4b-X\	.
!LO:LB:g=original	!	!	!	!	!	!	!
=49	=49	=49	=49	=49	=49	=49	=49
2.F\	.	2d\	.	1a	-it	4a\	.
.	.	.	.	.	.	4g\	.
.	.	4A\	.	.	.	[<2f\	.
4G\	.	4B-X\	.	.	.	.	.
!	!	!LO:LB:g=original	!	!	!	!LO:LB:g=original	!
=50	=50	=50	=50	=50	=50	=50	=50
4F\	.	2.A/	.	[<1a	pla-	4f\]	.
4E\	.	.	.	.	.	4g\	.
4D\	.	.	.	.	.	4f/	.
4C#X\	.	4G/	.	.	.	4e/	.
=51	=51	=51	=51	=51	=51	=51	=51
2.D/	.	4F/	.	4a\]	.	2d/	.
.	.	4E/	cu-	4g\	.	.	.
.	.	2D/	-it	4f\	.	[<2dd\	.
4Cn/	.	.	.	4e\	.	.	.
=52	=52	=52	=52	=52	=52	=52	=52
!	!	!	!	!	!	!LO:N:xstem	!
4BB-X/	.	[<1d	pla-	2.f\	.	4dd\]	.
4AA/	.	.	.	.	.	4cc\	.
[2BB-X/	.	.	.	.	.	4b-X\	.
.	.	.	.	4g\	.	4a\	.
=53	=53	=53	=53	=53	=53	=53	=53
4BB-/]	.	2.d\]	.	4f\	.	2.b-X\	.
4C/	.	.	.	4e\	-cu-	.	.
4BB-X/	.	.	.	[<2d\	-it	.	.
4AA/	.	4d\	-cu-	.	.	4cc\	.
!	!	!	!	!LO:LB:g=original	!	!	!
=54	=54	=54	=54	=54	=54	=54	=54
4.GG/	.	1d	-it	2dZ\]	.	(4b-X\	.
.	.	.	.	.	.	4cc\)	.
8GG/	-cu-	.	.	.	.	.	.
2GG/	-it	.	.	[<2g\	De-	4dd\	-cu-
.	.	.	.	.	.	4ee\	-it
=55	=55	=55	=55	=55	=55	=55	=55
[1AA	De-	[<1A	De-	2g\]	.	2cc#X\	De-
.	.	.	.	2f\	.	[<2dd\	.
=56	=56	=56	=56	=56	=56	=56	=56
1AA]	.	1A]	.	1f	.	2dd\]	.
.	.	.	.	.	.	2cc#X\	.
=57	=57	=57	=57	=57	=57	=57	=57
0D	-o.	0A;	-o.	0d;	-o.	0dd	o.
!LO:LB:g=original	!	!	!	!	!	!LO:LB:g=original	!
=58	=58	=58	=58	=58	=58	=58	=58
*k[b-]	*	*	*	*k[b-]	*	*k[b-]	*
*M3/2	*	*M3/2	*	*M3/2	*	*M3/2	*
2G\	Non	2d\	non	2g\	non	2b-X\	non
2G\	est	2d\	est	2g\	est	2b-\	est
2G\	in	2d\	in	2g\	in	2b-\	in
=59	=59	=59	=59	=59	=59	=59	=59
1F#X	ven-	1d	ven-	1d	ven-	1a	ven-
2Fn\	-tuſ	2d\	-tuſ	2fn\	-tuſ	2a\	-tuſ
!	!	!LO:LB:g=original	!	!	!	!	!
=60	=60	=60	=60	=60	=60	=60	=60
2.E\	si-	2.d\	si-	2.g\	ſi-	2.g/	ſi-
4E\	-mi-	4d\	-mi-	4g\	-mi-	4g/	-mi-
2E-X\	-lis	2c\	-lis	2g\	-lis	2g/	-lis
=61	=61	=61	=61	=61	=61	=61	=61
1D	il-	1d	il-	(2g\	il-	1a	il-
.	.	.	.	2f#X\)	.	.	.
!	!	!	!	!LO:TX:t=P:problem=custos:n f	!	!	!
2D/	-li	2d\	-li	2f#\	-li	2a\	-li
*	*	*	*	*custos:f	*	*	*
!	!	!	!	!LO:LB:g=original	!	!	!
=62	=62	=62	=62	=62	=62	=62	=62
2B-X\	non	2d\	non	2fn\	non	2dd\	non
2B-\	eſt	2d\	est	2f\	est	2dd\	est
2B-\	in	2d\	in	2f\	in	2dd\	in
=63	=63	=63	=63	=63	=63	=63	=63
1A	ven-	1A	ven-	1f	ven-	1cc#X	ven-
2A-X\	-tus	2c\	-tus	2f\	-t(uſ)	2ccn\	-tuſ
=64	=64	=64	=64	=64	=64	=64	=64
2.G\	ſi-	2.d\	ſi-	2.f\	ſi-	2.bn\	si-
4G\	-mi-	4d\	-mi-	4f\	-mi-	4b\	-mi-
2G\	-lis	2B-X\	-lis	2e\	-lis	2b-X\	-lis
!LO:LB:g=original	!	!	!	!	!	!	!
=65	=65	=65	=65	=65	=65	=65	=65
1F	il-	1c	il-	1f	il-	1a	il-
2F\	-li	2c\	-li	2f\	-li	2a\	-li
!	!	!	!	!	!	!LO:LB:g=original	!
=66	=66	=66	=66	=66	=66	=66	=66
1.r	.	1.r	.	2r	.	0.r	.
.	.	.	.	2f\	qui	.	.
.	.	.	.	4d\	con-	.	.
.	.	.	.	4d\	-ſer	.	.
=67	=67	=67	=67	=67	=67	=67	=67
2r	.	2r	.	1Bn	va-	.	.
2G\	qui	2d\	qui	.	.	.	.
4E-X\	con-	4e-X\	con-	2c/	-ret	.	.
4E-\	-ser-	4e-\	-ſer-	.	.	.	.
!	!	!LO:LB:g=original	!	!	!	!	!
=68	=68	=68	=68	=68	=68	=68	=68
1C	-va-	1e-X	-va-	2g\	le-	2r	.
.	.	.	.	2g\	-gem	2cc\	qui
2C#X/	-ret	2en\	-ret	2en\	Ex-	4a\	con-
.	.	.	.	.	.	4a\	-ser-
=69	=69	=69	=69	=69	=69	=69	=69
1D	le-	1A	le-	1d	-cel-	1f#X	-va-
2D/	-gem	2A/	-gem	2d\	-ſi	2f#/	-ret
!	!	!	!	!LO:LB:g=original	!	!	!
=70	=70	=70	=70	=70	=70	=70	=70
2E-X\	Ex-	1G	Ex-	2g\	Le-	2b-X\	Le-
1C#X	.	.	.	2g\	-gem	2b-\	-gem
.	.	2A/	.	2g\	Ex-	2a\	Ex-
=71	=71	=71	=71	=71	=71	=71	=71
1.D	-cel-	1.d	-cel-	2g\	-cel-	1.a	-cel-
.	.	.	.	1f#X	.	.	.
=72	=72	=72	=72	=72	=72	=72	=72
1.GG	-si	1.d	-ſi	1.g	-si	1.g	-si
=73	=73	=73	=73	=73	=73	=73	=73
2r	.	2r	.	2r	.	1.r	.
2d\	qui	2d\	qui	2f#X\	qui	.	.
4B-X\	con-	4d\	con-	4g\	con-	.	.
4B-\	-ſer-	4d\	-ſer	4g\	-ſer	.	.
!LO:LB:g=original	!	!	!	!	!	!	!
=74	=74	=74	=74	=74	=74	=74	=74
1G	-va-	1B-X	va-	1d	va-	2r	.
.	.	.	.	.	.	2gg\	qui
2G#X\	-ret	2Bn\	-ret	2e\	-ret	4een\	con-
.	.	.	.	.	.	4ee\	-ſer-
=75	=75	=75	=75	=75	=75	=75	=75
1A	Le-	1en	Le-	2r	.	1cc#X	-va-
.	.	.	.	2a\	Le-	.	.
2A\	-gem	2e\	-gem	2fn\	-gem	2cc#\	-ret
!	!	!	!	!	!	!LO:LB:g=original	!
=76	=76	=76	=76	=76	=76	=76	=76
2B-X\	Ex-	1d	ex-	(1f	Ex-	2dd\	Le-
1G#X	.	.	.	.	.	2dd\	-gem
.	.	2d\	.	2e\)	.	2dd\	.
=77	=77	=77	=77	=77	=77	=77	=77
1.A	-cel-	1.A	-cel-	1.e	-cel-	2dd\	Ex-
.	.	.	.	.	.	1cc#X	-cel-
!	!	!LO:LB:g=original	!	!	!	!	!
=78	=78	=78	=78	=78	=78	=78	=78
!LO:TX:b:i:t=Vertatur	!	!	!	!LO:TX:b:i:t=Versatur	!	!LO:TX:b:i:t=Versatur	!
1.D	-si.	1.A	-si	1.d	-si.	1.dd	-ſi.
!	!	!LO:PB:g=original	!	!LO:PB:g=original	!	!LO:PB:g=original	!
==	==	==	==	==	==	==	==
*-	*-	*-	*-	*-	*-	*-	*-
!!!system-decoration: [(s1,s2,s3,s4)]
!!!RDF**kern: Z = caesura
!!!RDF**kern: < = below
!!!RDF**kern: > = above
!!!ENC: Filip Voros
!!!END: 2023-10-29
!!!EED: Marta Chmielewska
!!!EEV: 2024-05-04
